2 Export/Icons/Brands/Google Chrome.svg

<svg xmlns="http://www.w3.org/2000/svg" xmlns:xlink="http://www.w3.org/1999/xlink" width="24" height="24" viewBox="0 0 24 24">
  <defs>
    <path id="google-chrome-a" d="M15.1605,9.5175 L20.19675,8.25825 C20.7261183,9.42724294 21,10.6957326 21,11.979 C21,16.9275 16.92675,21 11.976,21 C11.7495,21 11.52225,20.99175 11.29575,20.9745 L14.9745,14.71425 C15.2415,14.43225 15.46575,14.112 15.63525,13.761 C16.1692041,12.6314325 16.1573246,11.3197115 15.603,10.2 C15.4799032,9.95757668 15.3315829,9.72881148 15.1605,9.5175 Z M12.7305,15.94875 L11.13975,20.96025 C6.5535,20.50875 3,16.605 3,11.98275 C3,10.194 3.53175,8.445 4.5285,6.95925 L8.154,13.242 C8.289,13.64625 8.99325,15.17775 10.45425,15.73725 C11.20275,16.02375 11.985,16.098 12.7305,15.94875 Z M11.97975,8.71494205 C10.47525,8.72925 9.07125,9.873 8.769,11.349 C8.55449886,12.4486473 8.9024654,13.5828438 9.69675,14.373 C10.60725,15.2625 12.05175,15.5565 13.24725,15.06825 C14.30325,14.63625 15.09975,13.623 15.2655,12.495 C15.4695,11.103 14.6745,9.621 13.39425,9.02325 C12.951274,8.81737752 12.4682199,8.71210964 11.97975,8.71494205 L11.97975,8.71494205 Z M8.2845,10.4715 L4.69425,6.72225 C6.39312847,4.38460118 9.1079768,3.00097084 11.99775,3 C15.41775,3 18.55575,4.944 20.07825,8.00625 L12.4185,8.00625 C11.06025,7.9125 9.9525,8.39625 9.21975,9.096 C8.81526056,9.48406925 8.49665315,9.95265465 8.2845,10.4715 L8.2845,10.4715 Z"/>
  </defs>
  <g fill="none" fill-rule="evenodd">
    <polygon points="0 0 24 0 24 24 0 24"/>
    <mask id="google-chrome-b" fill="#fff">
      <use xlink:href="#google-chrome-a"/>
    </mask>
    <use fill="#000" xlink:href="#google-chrome-a"/>
    <g fill="#000" mask="url(#google-chrome-b)">
      <rect width="24" height="24"/>
    </g>
  </g>
</svg>

<svg xmlns="http://www.w3.org/2000/svg" xmlns:xlink="http://www.w3.org/1999/xlink" width="24" height="24" viewBox="0 0 24 24">
  <defs>
    <path id="google-chrome-a" d="M15.16 9.518l5.037-1.26A9.02 9.02 0 0 1 21 11.98c0 4.947-4.073 9.02-9.024 9.02-.227 0-.454-.008-.68-.026l3.679-6.26c.267-.282.49-.602.66-.953a4.088 4.088 0 0 0-.032-3.561 3.867 3.867 0 0 0-.442-.682zm-2.43 6.43l-1.59 5.012C6.553 20.51 3 16.605 3 11.983c0-1.789.532-3.538 1.529-5.024l3.625 6.283c.135.404.84 1.936 2.3 2.495a4.096 4.096 0 0 0 2.276.212zm-.75-7.233c-1.505.014-2.909 1.158-3.211 2.634a3.358 3.358 0 0 0 .928 3.024c.91.89 2.355 1.184 3.55.695a3.367 3.367 0 0 0 2.018-2.573c.204-1.392-.59-2.874-1.87-3.472a3.31 3.31 0 0 0-1.415-.308zm-3.696 1.757l-3.59-3.75A9.032 9.032 0 0 1 11.998 3a9.036 9.036 0 0 1 8.08 5.006h-7.66c-1.358-.094-2.465.39-3.198 1.09a4.009 4.009 0 0 0-.936 1.376z"/>
  </defs>
  <g fill="none" fill-rule="evenodd">
    <polygon points="0 0 24 0 24 24 0 24"/>
    <mask id="google-chrome-b" fill="#fff">
      <use xlink:href="#google-chrome-a"/>
    </mask>
    <use fill="#000" xlink:href="#google-chrome-a"/>
    <g fill="#000" mask="url(#google-chrome-b)">
      <rect width="24" height="24"/>
    </g>
  </g>
</svg>
